X:5
T:Bag Of Ice, The
T:Tim Livernois'
M:C|
L:1/8
C:Brad Maloney
R:Single Reel
K:G
~G2 BG cGBG| AGFG AdcA|~G2 BG cGBG | dcAF GABA :||
Bc ~c2 cdef | gB (3BBB cB (3BBB |  Bc ~c2 cdef |1 gedB GFGA :|2 gedD G3z:||

